X:1
T:I Surrender All
T:I Surrender All
T:Winfield Scott Weeden
T:Judson Wheeler Van DeVenter, 1896
T:Public Domain Courtesy of the Cyber Hymnal™
C:Winfield Scott Weeden
Z:Public Domain
Z:Courtesy of the Cyber Hymnal™
%%score ( 1 2 ) ( 3 4 )
L:1/8
Q:1/4=105
M:4/4
K:D
V:1 treble 
V:2 treble 
V:3 bass 
V:4 bass 
V:1
 F3 F G2 F2 | E3 E F2 E2 | D3 D G2 F2 | E2 F2 D4 | F3 F G2 F2 | E3 E F2 E2 | D3 D G2 F2 | %7
w: 1.~All to Je- sus,|I sur- ren- der;|All to Him I|free- ly give;|I will ev- er|love and trust Him,|In His pre- sence|
w: 2.~All to Je- sus|I sur- ren- der;|Hum- bly at His|feet I bow,|World- ly plea- sures|all for- sak- en;|Take me, Je- sus,|
w: 3.~All to Je- sus,|I sur- ren- der;|Make me, Sav- ior,|whol- ly Thine;|Let me feel the|Ho- ly Spir- it,|Tru- ly know that|
w: 4.~All to Je- sus,|I sur- ren- der;|Lord, I give my-|self to Thee;|Fill me with Thy|love and pow- er;|Let Thy bless- ing|
w: 5.~All to Je- sus|I sur- ren- der;|Now I feel the|sac- red flame.|O the joy of|full sal- va- tion!|Glo- ry, glo- ry,|
 E2 F2 D4 ||"^Refrain" [Fd]3 [Ac] [GB]2 [FA]2 | [EG]6 z2 | [Ac]3 [GB] [FA]2 [EG]2 | [DF]6 z2 | %12
w: dai- ly live.|||||
w: take me now.|||||
w: Thou art mine.|I sur- ren- der|all,|I sur- ren- der|all,|
w: fall on me.|||||
w: to His name!|||||
 [DF]3 [EG] [GB]2 [FA]2 | [Fd]3 [Ac] [Ac]2 [GB]2 | [FA]3 [EG] [DF]2 [CE]2 | D8 |] %16
w: ||||
w: ||||
w: All to Thee, my|bless- èd Sav- ior,|I sur- ren- der|all.|
w: ||||
w: ||||
V:2
 F3 F G2 F2 | E3 E F2 E2 | D3 D G2 F2 | E2 F2 D4 | F3 F G2 F2 | E3 E F2 E2 | D3 D G2 F2 | %7
 E2 F2 D4 || x8 | x8 | x8 | x8 | x8 | x8 | x8 | D8 |] %16
V:3
 A,3 A, B,2 A,2 | G,3 G, A,2 G,2 | F,3 A, B,2 A,2 | G,2 A,2 [D,F,]4 | A,3 A, B,2 A,2 | %5
 G,3 G, A,2 G,2 | F,3 F, B,2 A,2 | G,2 A,2 [D,F,]4 || [D,A,]2 z2 [D,A,]2 z2 | %9
 ([A,,C][A,,C][C,C][E,C] [A,,C]2) z2 | [A,,A,]2 z2 [A,,A,]2 z2 | %11
 ([D,A,][D,A,][F,A,]A, [D,A,]2) z2 | [D,A,]3 [D,A,] [D,D]2 [D,D]2 | [D,A,]3 [F,D] [G,D]2 [G,D]2 | %14
 [A,D]3 A, [A,,A,]2 [A,,G,]2 | [D,F,]8 |] %16
V:4
 A,3 A, D,4 | G,3 G, A,,4 | F,3 A, D,4 | G,2 A,2 x4 | A,3 A, D,4 | G,3 G, A,,4 | F,3 F, D,4 | %7
 A,,4 x4 || x8 | x8 | x8 | x8 | x8 | x8 | x3 A, x4 | x8 |] %16

